X: 1
T: les Enfants du Pauvre Homme   [Cm]
C: Ludovic and Michel
R: waltz
S: handout at NEFFA 2019 p.3 #1
Z: 2019 John Chambers <jc:trillian.mit.edu>
M: 3/4
L: 1/16
K: Cm
G2 |\
"Cm"c4c2 | "G7"=B4G2 | "Cm"c=Bc2d2 | "G"e2d2G2 |\
"Cm"c4c2 | "G7"=B4G2 | "Cm"cde2d2 | c4 :|
|: c2 |\
"Cm"e4e2 | "G7"d4G2 | "Cm"c=Bc2d2 | "G7"e2d=BG2 |\
"Cm"e4e2 | "G7"d4c2 | "G"=Bcd2B2 | "Cm"c4 :| 
